X:7357
T:the Sportsman's Hornpipe
O:england
M:4/4
A:North-West
R:Hornpipe
K:GDor
GA|\
B2BB A2AG| FGAB cAGF| B2BB A2AG| D2G2 G2GA|\
B2BB A2AG| FGAB cAGF| fefd cBAG| D2G2 G2::\
z2|\
GABc defd| gece dcBA| GABc defd| gece d3d|\
g2ge f2fd| B2Bd cAF2| BABG AGAF| D2G2 G2:|


